X:1
T: Trip to Duro
I:
%%musicspace	2pt
M: C|
R: reel
K: D
"D"D2FD A2FA| defe "Bm"B2Bc| "G"dBBA "Bm"dBBA| "D"FADE "A7"FEE2|
"D"D2FD A2FA| defd "G"B2Bc|  dBBA "D"FAdB| "A"AFGE "D"FDD2 :|
"D"d2de f2fg| afdf "G"gfed| "A"cdef "Em"gebe| "G"gebe "A"gfec|
"D"d2de f2fg| afdf "G"gfed| "A"cdef "G"gbag| "A"fdec "D"d3e|
"D"fdec "G"d3e| "D"fded "Bm"B2Bc| dBBA "G"dBBA| "D"FADE "A7"FEE2|
"D"D2FD A2FA| defd "G"B2Bc| dBBA "D"FAdB| "A"AFGE "D"FDD2|]
%
